X:5
T:Für Elise (Extended)
C:Beethoven
M:3/8
L:1/16
Q:1/8=120
K:Am
ed | edcA2c | B2GA | B2ce | de |
edcA2c | B2GA | B2cB2A |
B2cd | e2fe | d2cB | A2GA |
B2cd | e2Bc | d2Bc | B2A2 |
ed | edcA2c | B2GA | B2ce | de |
edcA2c | B2GA | B2cB2A |
Bcde | dcBA | Bcde | dcBA |
edcA | B2ce | dcBA | GABc |
ed | edcA2c | B2GA | B2ce | de |
edcA2c | B2GA | B2cB2A |]